X:18
T:Finnish
Z: id:dc-polka-16
M:2/4
L:1/8
K:B Minor
B>c Bc|dB Bd|cA Ac|d/c/B/A/ BF|!
B>c Bc|dB B2|e2 dc|BA B2:|!
f2 df|ec cd|ef/e/ dc|Bc dB|!
f2 df|ec cd|ef/e/ dc|BA B2:|!